X:1
T:Title
L:1/8
M:6/8
I:linebreak $
K:D
V:1 treble nm="Voice"
V:1
"D" f2 d AFA |"G" B2 A"D" d2 f | efg"G" B2 c |"D" d2 e f2 g |"D" Pa3 PA3 |"G" B2 A"D" d2 f | %6
 efg"G" B2 c |"D" d2 d dAd |"G" Pg3 gag |"D" f2 d fgf |"A" e2 e ede |"D" fdB B2 A |"G" Pg3 gag | %13
"D" f2 d fgf |"A" e2 d efg |"D" aba a2 g |"D" f2 e d2 A |"G" B2 A"D" d2 f | efg"G" B2 c | %19
"D" d2 e f2 g |"D" Pa3 PA3 |"G" B2 A"D" d2 f | efg"G" B2 c |"D" d2 d dAd |] %24
